build/assets/img/svg/icon-money.svg

<svg width="100" height="100" viewBox="0 0 100 100" fill="none" xmlns="http://www.w3.org/2000/svg">
<path fill-rule="evenodd" clip-rule="evenodd" d="M40.1649 2.4377C39.768 1.8541 38.9078 1.8541 38.511 2.43769L15.1748 36.7562C14.7233 37.4201 15.1989 38.3185 16.0017 38.3185H26.6972V95.8491C26.6972 96.4014 27.1449 96.8491 27.6972 96.8491H49.8788C50.4311 96.8491 50.8788 96.4014 50.8788 95.8491V38.3185H62.6742C63.477 38.3185 63.9525 37.4201 63.5011 36.7562L40.1649 2.4377Z" fill="url(#paint0_linear)"/>
<path d="M52.3689 35.3341C67.1263 53.3282 55.4317 46.4939 45.788 60.9057C40.23 69.4456 39.0811 81.8976 45.1793 90.057C51.453 98.4054 61.0829 97.3322 69.8574 96.9216C75.1522 96.6697 78.9553 93.4755 82.3774 88.7546C85.5197 84.4192 86.0681 77.2271 84.9713 72.4836C83.359 65.0825 79.8904 58.3186 74.1541 53.764C67.8859 48.8316 60.1616 46.6702 72.2703 35.3593C71.0145 35.0092 69.7257 34.0998 68.4672 34.2761C66.8741 34.8303 65.7526 35.1225 64.3761 35.2233C63.792 35.2661 61.6341 33.4196 61.0857 33.3188C60.1781 33.5103 59.1663 33.9511 58.1737 34.0973C56.3347 34.4048 54.4625 34.5105 52.5964 34.4121C52.4539 34.4121 52.251 34.7069 52.2976 34.8303L52.3689 35.3341Z" fill="#DDA749"/>
<path d="M72.2692 35.3595C71.0134 35.0093 69.6643 33.8782 68.4661 34.2762C66.8209 34.8204 65.7515 35.1227 64.375 35.2234" fill="#8C6D17"/>
<g style="mix-blend-mode:multiply" opacity="0.1">
<g style="mix-blend-mode:multiply" opacity="0.5">
<path d="M84.9805 72.5889C83.4025 65.3369 80.0448 58.7025 74.5096 54.1665C77.7201 58.2305 79.8241 63.2033 80.9769 68.5023C82.0453 73.229 81.5084 80.3957 78.3932 84.7032C74.9893 89.4073 71.2119 92.5928 65.9465 92.8413C58.8169 93.1752 51.1123 93.9508 45.1328 89.6634C45.2309 89.8039 45.3263 89.9495 45.4299 90.0876C51.6683 98.4064 61.237 97.3371 69.9582 96.9279C75.2236 96.6769 79.001 93.4939 82.405 88.7923C85.5119 84.4823 86.0488 77.3156 84.9805 72.5889Z" fill="black"/>
</g>
</g>
<g style="mix-blend-mode:multiply" opacity="0.1">
<path d="M68.5191 34.3668C68.5191 34.3668 64.609 42.3974 63.652 52.1765C63.652 52.1765 63.3148 40.5359 64.4554 35.4037C64.4034 35.4313 65.1793 35.3127 66.2213 35.128C66.8739 34.9901 67.787 34.5102 68.5191 34.3668Z" fill="black"/>
</g>
<g style="mix-blend-mode:multiply" opacity="0.1">
<path d="M58.1807 34.2151C58.1807 34.2151 59.3104 46.0983 61.8769 51.6773C61.8769 51.6773 59.5462 38.1091 61.0817 33.3188C61.0817 33.3188 60.4538 33.5422 59.7463 33.7463C59.3378 33.8704 58.5728 33.9669 58.1807 34.2151Z" fill="black"/>
</g>
<path d="M58.6931 79.7184C59.6775 80.6423 61.1938 81.522 62.5594 81.522C63.456 81.522 64.5665 81.0063 64.5665 79.9556C64.5665 78.7505 62.9021 78.5353 61.213 77.9148C59.524 77.2944 57.8623 76.3236 57.8623 73.7037C57.8623 71.1693 59.6117 68.828 62.2166 68.657V66.0592H64.2046V68.657C65.5799 68.7554 66.912 69.1827 68.09 69.9035L66.5106 73.0308C65.742 72.3768 64.775 72.0052 63.7686 71.9774C62.8281 71.9774 61.9534 72.3221 61.9534 73.1798C61.9534 74.1698 63.2997 74.5972 64.0455 74.8565C66.4804 75.6838 68.6795 76.5746 68.6795 79.5585C68.6795 82.5424 66.9712 84.1143 64.1963 84.7982V87.4815H62.2111V84.9251C61.2724 84.9156 60.3433 84.7343 59.4691 84.3901C58.5725 84.0454 57.6539 83.6372 56.9492 82.9726L58.6931 79.7184Z" fill="#362C19"/>
<path d="M66.0033 47.6593L59.4855 48.0482C59.4319 48.0515 59.3782 48.044 59.3275 48.0262C59.2768 48.0084 59.2301 47.9805 59.1903 47.9443C59.1504 47.9081 59.1182 47.8642 59.0954 47.8153C59.0727 47.7663 59.0599 47.7133 59.0578 47.6593V47.2732C59.0547 47.1673 59.0928 47.0642 59.164 46.986C59.2351 46.9078 59.3337 46.8604 59.4389 46.854L65.9567 46.4762C66.0107 46.4729 66.0649 46.4805 66.116 46.4987C66.167 46.5169 66.2139 46.5452 66.2538 46.582C66.2938 46.6188 66.3259 46.6634 66.3483 46.7129C66.3708 46.7625 66.3831 46.8161 66.3844 46.8706V47.2594C66.3832 47.3623 66.3431 47.4608 66.2723 47.5351C66.2016 47.6093 66.1054 47.6537 66.0033 47.6593Z" fill="#4D3F24"/>
<path d="M66.3336 47.8053H59.4813C59.2754 47.8053 59.1084 47.9732 59.1084 48.1804V48.412C59.1084 48.6191 59.2754 48.7871 59.4813 48.7871H66.3336C66.5395 48.7871 66.7065 48.6191 66.7065 48.412V48.1804C66.7065 47.9732 66.5395 47.8053 66.3336 47.8053Z" fill="#362C19"/>
<path d="M58.0318 57.1847C58.7562 54.0862 59.9442 51.1162 61.5553 48.3764C61.6622 48.1006 61.4237 48.0317 61.155 47.9241L60.9493 47.8414C60.8202 47.7896 60.6759 47.7913 60.548 47.846C60.4201 47.9008 60.3189 48.0042 60.2666 48.1337C58.6791 50.7306 57.5406 53.5793 56.8994 56.5587C56.852 56.7052 56.85 56.8628 56.8936 57.0105C56.9371 57.1582 57.0243 57.2892 57.1434 57.386L57.5383 57.6342C57.807 57.7528 57.9249 57.455 58.0318 57.1847Z" fill="#362C19"/>
<path d="M62.039 60.4911C61.6853 56.2414 61.0958 51.6662 60.3746 47.4937C60.3253 47.0966 60.6159 47.0883 60.9532 47.0442L61.2109 47.0111C61.3888 47.0051 61.5618 47.0697 61.6926 47.191C61.8235 47.3123 61.9016 47.4805 61.9102 47.6592C62.7602 52.2922 63.3333 56.0208 63.517 59.7713C63.5581 60.5656 63.092 60.8744 62.4586 61.2081C62.1213 61.2495 62.0884 60.8965 62.039 60.4911Z" fill="#4D3F24"/>
<path d="M47.4623 97.6827C51.6866 97.6827 55.1111 94.2795 55.1111 90.0815C55.1111 85.8835 51.6866 82.4803 47.4623 82.4803C43.238 82.4803 39.8135 85.8835 39.8135 90.0815C39.8135 94.2795 43.238 97.6827 47.4623 97.6827Z" fill="#FFD01F"/>
<g style="mix-blend-mode:soft-light" opacity="0.5">
<path d="M51.7992 94.392C54.1947 92.0115 54.1947 88.1519 51.7992 85.7713C49.4038 83.3908 45.52 83.3908 43.1245 85.7713C40.729 88.1519 40.729 92.0115 43.1245 94.392C45.52 96.7726 49.4038 96.7726 51.7992 94.392Z" fill="#F2C94C"/>
</g>
<path d="M49.3223 88.511L49.2754 88.4626C49.2164 88.4019 49.1484 88.3507 49.0736 88.3107L49.0715 88.3096L49.0716 88.3096C48.9535 88.2394 48.8317 88.1756 48.7066 88.1187L48.7066 88.1187C48.5552 88.0497 48.3995 87.9901 48.2405 87.9404C48.0881 87.8934 47.9318 87.8601 47.7734 87.8406V89.3795L47.9733 89.4268L47.9749 89.4272L47.9749 89.4272C48.3004 89.5156 48.6013 89.6106 48.8774 89.7121C49.1296 89.8028 49.3654 89.9332 49.5757 90.0986L49.5761 90.0989C49.7649 90.2505 49.9175 90.4419 50.0228 90.6593L50.0236 90.6609L50.0236 90.6609C50.1346 90.9129 50.1881 91.1862 50.1803 91.4612C50.1885 91.775 50.123 92.0864 49.989 92.3706L49.9886 92.3713C49.8677 92.617 49.6896 92.8303 49.4691 92.9938L49.4689 92.994C49.2411 93.1605 48.9842 93.2834 48.7113 93.3565C48.4332 93.4331 48.1475 93.4789 47.8594 93.4931V94.4849V94.5349H47.8094H47.2385H47.1885V94.4849V93.482C46.7572 93.4479 46.3322 93.3577 45.9244 93.2136C45.5137 93.0714 45.1245 92.8742 44.7675 92.6273L44.7314 92.6023L44.7514 92.5633L45.3321 91.4351L45.3619 91.3772L45.4101 91.4209C45.489 91.4925 45.5741 91.557 45.6643 91.6139L45.6649 91.6143C45.8046 91.705 45.9514 91.7846 46.1038 91.8522C46.292 91.9348 46.4842 92.0079 46.6797 92.0712L46.6799 92.0713C46.8738 92.1348 47.0735 92.1794 47.276 92.2045V90.6837C47.231 90.673 47.1853 90.6613 47.1405 90.6486L47.139 90.6482C47.0843 90.6326 47.0267 90.6163 46.9763 90.5965C46.6876 90.5207 46.405 90.4237 46.1307 90.3064M49.3223 88.511L46.1502 90.2604M49.3223 88.511L49.355 88.452L49.9405 87.3947L49.9626 87.3547L49.9248 87.3291C49.632 87.1309 49.3173 86.9669 48.9869 86.8402L48.969 86.8869M49.3223 88.511L47.8142 86.6307M46.1307 90.3064C46.1306 90.3064 46.1306 90.3064 46.1305 90.3064L46.1502 90.2604M46.1307 90.3064C46.1307 90.3065 46.1308 90.3065 46.1309 90.3065L46.1502 90.2604M46.1307 90.3064C45.9093 90.2138 45.704 90.0871 45.5223 89.9308L45.5221 89.9306C45.3635 89.7925 45.2373 89.6215 45.1524 89.4296L45.1516 89.4278L45.1516 89.4278C45.0653 89.2096 45.0238 88.9764 45.0297 88.742M46.1502 90.2604C45.9335 90.1698 45.7326 90.0458 45.5549 89.8929C45.4019 89.7596 45.2801 89.5945 45.1981 89.4094C45.1141 89.1971 45.0738 88.9702 45.0797 88.7421L45.0297 88.7432C45.0297 88.7428 45.0297 88.7424 45.0297 88.742M45.0297 88.742C45.0232 88.4451 45.0798 88.1501 45.1959 87.8764L45.1959 87.8762C45.3033 87.6254 45.4627 87.3999 45.6638 87.2144L45.6641 87.2141L45.6641 87.2141C45.8693 87.0282 46.1089 86.8836 46.3696 86.7885C46.6345 86.689 46.9115 86.6254 47.1933 86.5993V85.6781V85.6281H47.2433H47.8142H47.8642V85.6781V86.5843C48.2489 86.6152 48.6271 86.7014 48.987 86.8403L48.969 86.8869M45.0297 88.742L49.3365 88.3822M49.2741 88.3917C49.2206 88.3429 49.1612 88.3008 49.0971 88.2666C48.9775 88.1955 48.8541 88.1309 48.7274 88.0732C48.574 88.0033 48.4163 87.943 48.2554 87.8927C48.0981 87.8442 47.9368 87.8099 47.7734 87.7903L49.2741 88.3917ZM49.2741 88.3917L49.2675 88.4036L49.3112 88.4278M49.2741 88.3917L49.3112 88.4278M49.3112 88.4278L49.3471 88.393C49.3436 88.3894 49.3401 88.3858 49.3365 88.3822M49.3112 88.4278L49.3365 88.3822M49.3365 88.3822L49.8967 87.3705C49.6072 87.1745 49.2959 87.0122 48.969 86.8869M48.969 86.8869C48.5992 86.7443 48.2099 86.6579 47.8142 86.6307M47.8142 86.6307V85.7281V85.6781H47.7642H47.2933H47.2433V85.7281V86.6452L47.8142 86.6307ZM47.326 92.2606V92.2103V92.2606ZM46.4709 88.5243L46.471 88.5243V88.5213C46.471 88.3052 46.5414 88.1432 46.6785 88.029C46.809 87.9203 47.0055 87.8504 47.2744 87.8259V89.2381C47.0607 89.1785 46.8575 89.086 46.6722 88.964C46.6052 88.9128 46.5519 88.8461 46.5169 88.7697C46.4815 88.6929 46.4658 88.6086 46.4709 88.5243ZM48.6822 91.5917L48.6822 91.5917V91.5933C48.6822 91.7992 48.6048 91.9507 48.4513 92.0564C48.3027 92.1587 48.0786 92.2209 47.7734 92.2387V90.8363C48.0068 90.9072 48.2303 91.0074 48.4383 91.1346C48.5155 91.183 48.5787 91.2507 48.6215 91.3308C48.6643 91.4111 48.6852 91.501 48.6822 91.5917Z" fill="#D4A907" stroke="#D5A907" stroke-width="0.1"/>
<g style="mix-blend-mode:soft-light" opacity="0.5">
<path d="M41.7855 90.4217C41.7859 89.3162 42.0887 88.2315 42.6615 87.2838C43.2344 86.3362 44.0557 85.5611 45.0377 85.0416C46.0196 84.522 47.1253 84.2776 48.2362 84.3343C49.3472 84.3911 50.4218 84.747 51.3449 85.3639C50.0848 84.3418 48.4677 83.8591 46.8494 84.0218C45.2311 84.1846 43.7442 84.9796 42.7157 86.2319C41.6872 87.4841 41.2014 89.0911 41.3652 90.6993C41.529 92.3076 42.3289 93.7852 43.589 94.8073C42.4458 93.6283 41.8004 92.0589 41.7855 90.4217Z" fill="#F2C94C"/>
</g>
<path d="M23 44V65" stroke="#FFB900" stroke-width="3" stroke-linecap="round"/>
<path d="M23 71V81.5" stroke="#FFB900" stroke-width="3" stroke-linecap="round"/>
<path d="M89.6501 46.0416C89.8992 46.3631 90.0114 46.7702 89.9623 47.1742C89.9132 47.5781 89.7068 47.9463 89.3879 48.1987L82.1576 53.8696C81.8365 54.1191 81.43 54.2315 81.0265 54.1823C80.6231 54.1331 80.2553 53.9264 80.0034 53.6071C79.7544 53.2861 79.6423 52.8796 79.6914 52.4761C79.7405 52.0727 79.9469 51.705 80.2655 51.4532L87.4958 45.7823C87.8163 45.5317 88.2227 45.4183 88.6264 45.4669C89.0301 45.5155 89.3981 45.7221 89.6501 46.0416Z" fill="#FFB900"/>
<path d="M90.5089 55.8464C90.5808 56.2464 90.4916 56.6586 90.2607 56.9929C90.0299 57.3272 89.6762 57.5564 89.277 57.6302L83.9577 58.5791C83.5579 58.6501 83.1462 58.56 82.8124 58.3283C82.4787 58.0967 82.25 57.7423 82.1762 57.3424C82.1052 56.942 82.1952 56.5298 82.4266 56.1956C82.658 55.8615 83.0119 55.6325 83.4113 55.5586L88.7274 54.6097C89.1273 54.5378 89.5395 54.6276 89.8734 54.8594C90.2074 55.0912 90.4359 55.4461 90.5089 55.8464Z" fill="#FFB900"/>
<path d="M80.7447 42.1323C80.3738 41.9676 79.9529 41.9562 79.5736 42.1008C79.1944 42.2453 78.8875 42.534 78.7199 42.9041L76.1329 48.5655C75.9674 48.9373 75.9555 49.3595 76.1 49.74C76.2444 50.1205 76.5333 50.4283 76.9037 50.5961C77.2749 50.7615 77.6964 50.7728 78.076 50.6276C78.4555 50.4823 78.762 50.1923 78.9284 49.8212L81.5186 44.1629C81.6839 43.7907 81.6953 43.3682 81.5503 42.9876C81.4052 42.6071 81.1156 42.2996 80.7447 42.1323Z" fill="#FFB900"/>
<defs>
<linearGradient id="paint0_linear" x1="46.3161" y1="47.4379" x2="27.5013" y2="48.3106" gradientUnits="userSpaceOnUse">
<stop stop-color="#035827"/>
<stop offset="1" stop-color="#1F9F4B"/>
</linearGradient>
</defs>
</svg>

<svg width="100" height="100" fill="none" xmlns="http://www.w3.org/2000/svg"><path fill-rule="evenodd" clip-rule="evenodd" d="M40.165 2.438a1 1 0 00-1.654 0L15.175 36.756a1 1 0 00.827 1.563h10.695v57.53a1 1 0 001 1H49.88a1 1 0 001-1V38.32h11.795a1 1 0 00.827-1.563L40.165 2.438z" fill="url(#paint0_linear)"/><path d="M52.369 35.334c14.757 17.994 3.063 11.16-6.581 25.572-5.558 8.54-6.707 20.992-.609 29.151 6.274 8.348 15.904 7.275 24.678 6.865 5.295-.252 9.098-3.447 12.52-8.167 3.143-4.336 3.691-11.528 2.594-16.271-1.612-7.401-5.08-14.165-10.817-18.72-6.268-4.932-13.992-7.094-1.884-18.405-1.255-.35-2.544-1.26-3.803-1.083-1.593.554-2.714.846-4.09.947-.585.043-2.743-1.803-3.291-1.904-.908.191-1.92.632-2.912.778a25.647 25.647 0 01-5.578.315c-.142 0-.345.295-.298.418l.07.504z" fill="#DDA749"/><path d="M72.27 35.36c-1.257-.35-2.606-1.482-3.804-1.084-1.645.544-2.715.847-4.091.947" fill="#8C6D17"/><g opacity=".1"><path d="M84.98 72.589c-1.578-7.252-4.935-13.886-10.47-18.422 3.21 4.063 5.314 9.036 6.467 14.335 1.068 4.727.531 11.894-2.584 16.201-3.404 4.704-7.181 7.89-12.447 8.138-7.13.334-14.834 1.11-20.813-3.178.098.14.193.287.297.425 6.238 8.318 15.807 7.25 24.528 6.84 5.266-.251 9.043-3.434 12.447-8.136 3.107-4.31 3.644-11.476 2.576-16.203z" fill="#000" opacity=".5"/></g><path d="M68.52 34.367s-3.911 8.03-4.868 17.81c0 0-.337-11.641.803-16.773-.052.027.724-.091 1.766-.276.653-.138 1.566-.618 2.298-.761zm-10.34-.152s1.13 11.883 3.697 17.462c0 0-2.33-13.568-.795-18.358 0 0-.628.223-1.336.427-.408.124-1.173.22-1.565.47z" fill="#000" opacity=".1"/><path d="M58.693 79.718c.985.924 2.5 1.804 3.866 1.804.897 0 2.008-.516 2.008-1.566 0-1.206-1.665-1.42-3.354-2.041-1.689-.62-3.35-1.591-3.35-4.211 0-2.535 1.749-4.876 4.354-5.047v-2.598h1.988v2.598a8.623 8.623 0 013.885 1.246l-1.58 3.128a4.42 4.42 0 00-2.741-1.054c-.94 0-1.816.345-1.816 1.203 0 .99 1.347 1.417 2.093 1.676 2.434.828 4.633 1.719 4.633 4.703 0 2.983-1.708 4.555-4.483 5.24v2.682h-1.985v-2.556a7.696 7.696 0 01-2.742-.535c-.897-.345-1.815-.753-2.52-1.417l1.744-3.255z" fill="#362C19"/><path d="M66.003 47.66l-6.517.388a.402.402 0 01-.428-.389v-.386a.409.409 0 01.38-.419l6.519-.378a.402.402 0 01.427.395v.388a.406.406 0 01-.38.4z" fill="#4D3F24"/><path d="M66.334 47.805H59.48a.374.374 0 00-.373.375v.232c0 .207.167.375.373.375h6.853a.374.374 0 00.373-.375v-.232a.374.374 0 00-.373-.375z" fill="#362C19"/><path d="M58.032 57.185a31.544 31.544 0 013.523-8.809c.107-.275-.131-.344-.4-.452l-.206-.083a.524.524 0 00-.682.293 27.075 27.075 0 00-3.368 8.425.765.765 0 00.244.827l.395.248c.269.119.387-.179.494-.45z" fill="#362C19"/><path d="M62.039 60.491c-.354-4.25-.943-8.825-1.664-12.997-.05-.397.24-.406.578-.45l.258-.033a.675.675 0 01.7.648c.85 4.633 1.422 8.362 1.606 12.112.041.795-.425 1.103-1.058 1.437-.338.041-.37-.311-.42-.717z" fill="#4D3F24"/><path d="M47.462 97.683c4.225 0 7.65-3.404 7.65-7.602s-3.425-7.6-7.65-7.6c-4.224 0-7.649 3.403-7.649 7.6 0 4.198 3.425 7.602 7.65 7.602z" fill="#FFD01F"/><path d="M51.8 94.392a6.069 6.069 0 000-8.62 6.161 6.161 0 00-8.675 0 6.069 6.069 0 000 8.62 6.161 6.161 0 008.674 0z" fill="#F2C94C" opacity=".5"/><path d="M49.322 88.511l-.047-.048a.822.822 0 00-.201-.152l-.002-.001h0a3.766 3.766 0 00-.365-.191h0a4.006 4.006 0 00-.467-.179 2.707 2.707 0 00-.467-.1v1.54l.2.047h.002c.325.089.626.184.902.285.253.09.488.221.699.387h0c.189.151.341.343.447.56v.002h0c.112.252.165.525.157.8a2.01 2.01 0 01-.191.91h0c-.121.246-.3.46-.52.623h0c-.228.166-.485.29-.758.362a3.938 3.938 0 01-.852.137v1.042h-.67v-1.053a4.97 4.97 0 01-1.265-.268c-.41-.143-.8-.34-1.157-.587l-.036-.025.02-.039.581-1.128.03-.058.048.044c.079.072.164.136.254.193h0c.14.091.287.17.44.238.188.083.38.156.576.22h0c.194.063.394.107.596.132v-1.52a3.288 3.288 0 01-.136-.035h-.001a2.396 2.396 0 01-.163-.052 6.073 6.073 0 01-.845-.29m3.191-1.796l-3.172 1.75m3.172-1.75l.033-.059.586-1.057.022-.04-.038-.026a4.631 4.631 0 00-.938-.489l-.018.047m.353 1.624l-1.508-1.88m-1.683 3.675s0 0 0 0l.02-.046m-.02.046s0 0 0 0l.02-.046m-.02.046a2.284 2.284 0 01-.609-.375h0a1.433 1.433 0 01-.37-.501v-.002h0a1.745 1.745 0 01-.122-.686m1.12 1.518a2.233 2.233 0 01-.595-.367 1.386 1.386 0 01-.357-.484 1.694 1.694 0 01-.118-.667l-.05.001v-.001m0 0c-.007-.297.05-.592.166-.866h0c.107-.25.267-.476.468-.662h0c.205-.186.445-.33.706-.425.265-.1.541-.164.823-.19v-.969h.671v.953a4.01 4.01 0 011.123.256l-.018.047m-3.94 1.855l4.307-.36m-.062.01a.871.871 0 00-.177-.125 3.83 3.83 0 00-.842-.374 2.746 2.746 0 00-.482-.103l1.501.602zm0 0l-.007.012.044.024m-.037-.036l.037.036m0 0l.036-.035a1.07 1.07 0 00-.01-.01m-.026.045l.026-.046m0 0l.56-1.011a4.526 4.526 0 00-.928-.484m0 0a3.966 3.966 0 00-1.155-.256m0 0v-.952h-.57v.967l.57-.014zm-.488 5.63v-.05.05zm-.855-3.737h0v-.003c0-.216.07-.378.208-.492.13-.109.326-.179.595-.203v1.412a2.141 2.141 0 01-.602-.274.514.514 0 01-.201-.44zm2.211 3.068h0v.001a.524.524 0 01-.23.463c-.15.103-.373.165-.679.183v-1.403c.234.071.457.171.665.299a.522.522 0 01.244.457z" fill="#D4A907" stroke="#D5A907" stroke-width=".1"/><path d="M41.785 90.422c0-1.106.304-2.19.877-3.138a6.12 6.12 0 012.376-2.242 6.168 6.168 0 016.307.322 6.16 6.16 0 00-8.63.868 6.068 6.068 0 00.874 8.575 6.383 6.383 0 01-1.803-4.385z" fill="#F2C94C" opacity=".5"/><path d="M23 44v21m0 6v10.5" stroke="#FFB900" stroke-width="3" stroke-linecap="round"/><path d="M89.65 46.042a1.545 1.545 0 01-.262 2.157l-7.23 5.67a1.54 1.54 0 01-2.155-.262 1.541 1.541 0 01.263-2.154l7.23-5.67a1.537 1.537 0 012.154.259zm.859 9.804a1.538 1.538 0 01-1.232 1.784l-5.32.95a1.537 1.537 0 01-1.78-1.238 1.542 1.542 0 011.234-1.783l5.316-.95a1.534 1.534 0 011.782 1.237zm-9.764-13.714a1.537 1.537 0 00-2.025.772l-2.587 5.661a1.542 1.542 0 00.77 2.031 1.534 1.534 0 002.025-.775l2.59-5.658a1.543 1.543 0 00-.773-2.03z" fill="#FFB900"/><defs><linearGradient id="paint0_linear" x1="46.316" y1="47.438" x2="27.501" y2="48.311" gradientUnits="userSpaceOnUse"><stop stop-color="#035827"/><stop offset="1" stop-color="#1F9F4B"/></linearGradient></defs></svg>
